src/icons/file-document.svg

<?xml version="1.0" encoding="UTF-8" standalone="no"?>
<svg
   version="1.2"
   viewBox="0 0 16 16"
   width="16"
   height="16"
   id="svg1"
   sodipodi:docname="file-svg.svg"
   inkscape:version="1.4 (e7c3feb100, 2024-10-09)"
   xmlns:inkscape="http://www.inkscape.org/namespaces/inkscape"
   xmlns:sodipodi="http://sodipodi.sourceforge.net/DTD/sodipodi-0.dtd"
   xmlns="http://www.w3.org/2000/svg"
   xmlns:svg="http://www.w3.org/2000/svg">
  <defs
     id="defs1" />
  <sodipodi:namedview
     id="namedview1"
     pagecolor="#505050"
     bordercolor="#eeeeee"
     borderopacity="1"
     inkscape:showpageshadow="0"
     inkscape:pageopacity="0"
     inkscape:pagecheckerboard="0"
     inkscape:deskcolor="#505050"
     inkscape:zoom="36.8125"
     inkscape:cx="8.0135823"
     inkscape:cy="8.0135823"
     inkscape:window-width="1326"
     inkscape:window-height="755"
     inkscape:window-x="20"
     inkscape:window-y="52"
     inkscape:window-maximized="0"
     inkscape:current-layer="svg1" />
  <title
     id="title1">file-svg</title>
  <style
     id="style1">
		.s0 { fill: #7380f9 } 
		.s1 { fill: #000000 } 
	</style>
  <g
     id="Layer 1">
    <path
       id="path1"
       class="s0"
       d="M 7 2 C 5.6 2 4.9003906 2.0007814 4.4003906 2.3007812 C 3.9003906 2.5007813 3.5007814 2.9003906 3.3007812 3.4003906 C 3.0007814 3.9003906 3 4.6 3 6 L 3 11 C 3 12.4 3.0007814 13.099609 3.3007812 13.599609 C 3.5007814 14.099609 3.9003906 14.499219 4.4003906 14.699219 C 4.9003906 14.999219 5.6 15 7 15 L 10 15 C 11.4 15 12.099609 14.999219 12.599609 14.699219 C 13.099609 14.499219 13.499219 14.099609 13.699219 13.599609 C 13.999219 13.099609 14 12.4 14 11 L 14 7.3007812 C 14 6.8007813 14.000391 6.6003906 13.900391 6.4003906 C 13.900391 6.2003906 13.832552 6.0007813 13.699219 5.8007812 C 13.599219 5.6007814 13.399609 5.3996094 13.099609 5.0996094 L 10.900391 2.9003906 C 10.600391 2.6003906 10.399219 2.4007813 10.199219 2.3007812 C 9.9992185 2.167448 9.7996094 2.0996094 9.5996094 2.0996094 C 9.3996094 1.9996094 9.1992188 2 8.6992188 2 L 7 2 z M 6 7 L 8 7 C 8.6 7 9 7.4 9 8 C 9 8.6 8.6 9 8 9 L 6 9 C 5.4 9 5 8.6 5 8 C 5 7.4 5.4 7 6 7 z M 6 10 L 11 10 C 11.6 10 12 10.4 12 11 C 12 11.6 11.6 12 11 12 L 6 12 C 5.4 12 5 11.6 5 11 C 5 10.4 5.4 10 6 10 z " />
  </g>
</svg>

<svg xmlns="http://www.w3.org/2000/svg" width="16" height="16" version="1.2"><path d="M7 2c-1.4 0-2.1 0-2.6.3-.5.2-.9.6-1.1 1.1C3 3.9 3 4.6 3 6v5c0 1.4 0 2.1.3 2.6.2.5.6.9 1.1 1.1.5.3 1.2.3 2.6.3h3c1.4 0 2.1 0 2.6-.3.5-.2.9-.6 1.1-1.1.3-.5.3-1.2.3-2.6V7.3c0-.5 0-.7-.1-.9q0-.3-.2-.6c-.1-.2-.3-.4-.6-.7l-2.2-2.2c-.3-.3-.5-.5-.7-.6q-.3-.2-.6-.2C9.4 2 9.2 2 8.7 2zM6 7h2c.6 0 1 .4 1 1s-.4 1-1 1H6c-.6 0-1-.4-1-1s.4-1 1-1m0 3h5c.6 0 1 .4 1 1s-.4 1-1 1H6c-.6 0-1-.4-1-1s.4-1 1-1" style="fill:#7380f9"/></svg>
